X:285
T: Sir David Baird's Strathspey
N: O'Farrell's Pocket Companion v.3 (Sky ed. p.130)
N: "Scotch"
M: C
L: 1/8
R: hornpipe
Q: 240
K: Bm
f/e/| dAAF A>BAB| dBBA B>cBd| ABdd ef a2| b/a/g/f/ g/f/e/d/ B2B :|
f/g/| a2 b/a/g/f/ a2 a/f/a| b>c'ba bc'd'>b| a>fed d>efe|
dBBA A2 Af/g/| a2 b/a/g/f/ a2 a/f/a| bc'ba bc'd'b|
b/a/g/f/ g/f/e/d/ d/c/d/e/ fe/d/| e/f/g/b/ a/f/e/d/ B2B :|
